fs/fps_960_20_filled.svg

<svg viewBox="0 0 20 20" fill="none" xmlns="http://www.w3.org/2000/svg" height="1em" width="1em">
  <path d="M4.5 10C5.88071 10 7 8.88071 7 7.5V4.5C7 3.11929 5.88071 2 4.5 2C3.11929 2 2 3.11929 2 4.5C2 5.88071 3.11929 7 4.5 7H4.60714C4.92276 7 5.22411 6.93889 5.5 6.82787V7.5C5.5 8.05228 5.05228 8.5 4.5 8.5H4.25C3.83579 8.5 3.5 8.16421 3.5 7.75C3.5 7.33579 3.16421 7 2.75 7C2.33579 7 2 7.33579 2 7.75C2 8.99264 3.00736 10 4.25 10H4.5ZM5.5 4.5V4.60714C5.5 5.10025 5.10025 5.5 4.60714 5.5H4.5C3.94772 5.5 3.5 5.05228 3.5 4.5C3.5 3.94772 3.94772 3.5 4.5 3.5C5.05228 3.5 5.5 3.94772 5.5 4.5ZM10.5 2C9.11929 2 8 3.11929 8 4.5V7.5C8 8.88071 9.11929 10 10.5 10C11.8807 10 13 8.88071 13 7.5C13 6.11929 11.8807 5 10.5 5H10.3929C10.0772 5 9.77589 5.06111 9.5 5.17213V4.5C9.5 3.94772 9.94772 3.5 10.5 3.5H10.75C11.1642 3.5 11.5 3.83579 11.5 4.25C11.5 4.66421 11.8358 5 12.25 5C12.6642 5 13 4.66421 13 4.25C13 3.00736 11.9926 2 10.75 2H10.5ZM9.5 7.5V7.39286C9.5 6.89975 9.89975 6.5 10.3929 6.5H10.5C11.0523 6.5 11.5 6.94772 11.5 7.5C11.5 8.05228 11.0523 8.5 10.5 8.5C9.94771 8.5 9.5 8.05228 9.5 7.5ZM15.5 4.5C15.5 3.94772 15.9477 3.5 16.5 3.5C17.0523 3.5 17.5 3.94772 17.5 4.5V7.5C17.5 8.05228 17.0523 8.5 16.5 8.5C15.9477 8.5 15.5 8.05228 15.5 7.5V4.5ZM16.5 2C15.1193 2 14 3.11929 14 4.5V7.5C14 8.88071 15.1193 10 16.5 10C17.8807 10 19 8.88071 19 7.5V4.5C19 3.11929 17.8807 2 16.5 2ZM3.5 12C3.22386 12 3 12.2239 3 12.5V17.5C3 17.7761 3.22386 18 3.5 18C3.77614 18 4 17.7761 4 17.5V16H5.5C5.77614 16 6 15.7761 6 15.5C6 15.2239 5.77614 15 5.5 15H4V13H6.5C6.77614 13 7 12.7761 7 12.5C7 12.2239 6.77614 12 6.5 12H3.5ZM8.5 12C8.22386 12 8 12.2239 8 12.5V17.5C8 17.7761 8.22386 18 8.5 18C8.77614 18 9 17.7761 9 17.5V16H10C11.1046 16 12 15.1046 12 14C12 12.8954 11.1046 12 10 12H8.5ZM11 14C11 14.5523 10.5523 15 10 15H9V13H10C10.5523 13 11 13.4477 11 14ZM13 13.75C13 12.7835 13.7835 12 14.75 12H15.5C16.3284 12 17 12.6716 17 13.5C17 13.7761 16.7761 14 16.5 14C16.2239 14 16 13.7761 16 13.5C16 13.2239 15.7761 13 15.5 13H14.75C14.3358 13 14 13.3358 14 13.75C14 14.1642 14.3358 14.5 14.75 14.5H15.25C16.2165 14.5 17 15.2835 17 16.25C17 17.2165 16.2165 18 15.25 18H14.5C13.6716 18 13 17.3284 13 16.5C13 16.2239 13.2239 16 13.5 16C13.7761 16 14 16.2239 14 16.5C14 16.7761 14.2239 17 14.5 17H15.25C15.6642 17 16 16.6642 16 16.25C16 15.8358 15.6642 15.5 15.25 15.5H14.75C13.7835 15.5 13 14.7165 13 13.75Z" fill="#212121"/>
</svg>

<svg viewBox="0 0 20 20" fill="none" xmlns="http://www.w3.org/2000/svg" height="1em" width="1em">
  <path d="M4.5 10A2.5 2.5 0 0 0 7 7.5v-3A2.5 2.5 0 1 0 4.5 7h.107c.316 0 .617-.061.893-.172V7.5a1 1 0 0 1-1 1h-.25a.75.75 0 0 1-.75-.75.75.75 0 0 0-1.5 0A2.25 2.25 0 0 0 4.25 10h.25Zm1-5.5v.107c0 .493-.4.893-.893.893H4.5a1 1 0 1 1 1-1Zm5-2.5A2.5 2.5 0 0 0 8 4.5v3A2.5 2.5 0 1 0 10.5 5h-.107c-.316 0-.617.061-.893.172V4.5a1 1 0 0 1 1-1h.25a.75.75 0 0 1 .75.75.75.75 0 0 0 1.5 0A2.25 2.25 0 0 0 10.75 2h-.25Zm-1 5.5v-.107c0-.493.4-.893.893-.893h.107a1 1 0 1 1-1 1Zm6-3a1 1 0 1 1 2 0v3a1 1 0 1 1-2 0v-3Zm1-2.5A2.5 2.5 0 0 0 14 4.5v3a2.5 2.5 0 0 0 5 0v-3A2.5 2.5 0 0 0 16.5 2Zm-13 10a.5.5 0 0 0-.5.5v5a.5.5 0 0 0 1 0V16h1.5a.5.5 0 0 0 0-1H4v-2h2.5a.5.5 0 0 0 0-1h-3Zm5 0a.5.5 0 0 0-.5.5v5a.5.5 0 0 0 1 0V16h1a2 2 0 1 0 0-4H8.5Zm2.5 2a1 1 0 0 1-1 1H9v-2h1a1 1 0 0 1 1 1Zm2-.25c0-.966.784-1.75 1.75-1.75h.75a1.5 1.5 0 0 1 1.5 1.5.5.5 0 0 1-1 0 .5.5 0 0 0-.5-.5h-.75a.75.75 0 0 0 0 1.5h.5a1.75 1.75 0 1 1 0 3.5h-.75a1.5 1.5 0 0 1-1.5-1.5.5.5 0 0 1 1 0 .5.5 0 0 0 .5.5h.75a.75.75 0 0 0 0-1.5h-.5A1.75 1.75 0 0 1 13 13.75Z" fill="#212121"/>
</svg>
